X: 114
T: Song of the Fox Society (a)
C: Teton Sioux band 1911-1914
N: Derived from sioux114.krn
O: South Dakota, U.S.A.
N: Teton Sioux Music by Frances Densmore, 1918
Z: transcribed to **kern format by Craig Sapp
L: 1/8
M: 3/4
Q: 1/4=58
K: E clef=bass
%%linebreak <none>
E2E2E B, [I:setbarnb 1]||  
[M:2/4]E2E2 | 
E FE2 | 
B,4- | 
B,4 ||  
[M:3/4]C2C2C B, ||  
[M:2/4]C2C2 | 
C DC2 | 
B,4- | 
B,4 | 
B,2B,2 | 
B, CB,2 | 
G,4 | 
E,4 | 
=F,2F,2 | 
=F, =G,F,2 | 
E,4- | 
E,4 | 
E,2E,2 | 
E, F,E,2 | 
B,,4- | 
B,,4 ||  
[M:3/4]B,,4-B,, B,, ||  
[M:2/4]B,,4 | 
B,,4 | 
B,, B,-B,2 ||  
[M:3/4]B, B, B, ^A,B,2 | 
(C B,) B, B,-B,2 ||  
[M:2/4]B,2B,2 ||  
[M:3/4]G, B,2<B,2B, ||  
[M:2/4]B,4 ||  
[M:3/4]C B,-B,2(3(C B,) B, ||  
[M:2/4]A,3G, | 
E,4 | 
=F, F,-F,2 ||  
[M:3/4]=F,2>F,2 (3(=G, F,) F, | 
E,4E,2 ||  
[M:2/4]E,2E,2 | 
E, F,E,2 | 
B,,4 | 
B,,4 | 
B,,4 | 
B,,3B,, | 
B,,4 | 
B,,2z2 |]  



